;FLAVOR:RepRap
;TIME:1539
;Filament used: 1.16932m
;Layer height: 0.15
;Generated with Cura_SteamEngine 2.6.0
M190 S60
M104 S200
M109 S200
G21;metric values
G90;absolute positioning
M82;set extruder to absolute mode
M107;start with the fan off
G28 X0 Y0;move X/Y to min endstops
G28 Z0;move Z to min endstops
G1 Z15.0 F4200 ;move the platform down 15mm
G92 E0;zero the extruded length
G1 F200 E4;extrude 4mm of feed stock
G92 E0;zero the extruded length again
G1 F4200;Put printing message on LCD screen
M117 Printing...
;LAYER_COUNT:62
;LAYER:0
M107
G0 F3600 X70.422 Y243.183 Z0.3
;TYPE:SKIRT
G1 F1800 X70.901 Y243.081 E0.02443
G1 X71.281 Y243.057 E0.04343
G1 X109.453 Y243.035 E1.94784
G1 X109.941 Y243.075 E1.97227
G1 X110.433 Y243.199 E1.99758
G1 X110.668 Y243.28 E2.00998
G1 X111.116 Y243.476 E2.03438
G1 X111.526 Y243.743 E2.05879
G1 X111.887 Y244.074 E2.08322
G1 X111.907 Y244.098 E2.08478
G1 X111.996 Y244.156 E2.09008
G1 X112.286 Y244.412 E2.10938
G1 X112.403 Y244.529 E2.11763
G1 X112.72 Y244.902 E2.14206
G1 X112.972 Y245.322 E2.16649
G1 X113.152 Y245.777 E2.1909
G1 X113.256 Y246.255 E2.21531
G1 X113.282 Y246.65 E2.23506
G1 X113.282 Y278.417 E3.81992
G1 X113.242 Y278.905 E3.84435
G1 X113.123 Y279.38 E3.86878
G1 X112.929 Y279.829 E3.89318
G1 X112.664 Y280.241 E3.91762
G1 X112.403 Y280.538 E3.93735
G1 X112.286 Y280.655 E3.9456
G1 X111.913 Y280.972 E3.97002
G1 X111.853 Y281.008 E3.97351
G1 X111.638 Y281.228 E3.98886
G1 X111.243 Y281.518 E4.01331
G1 X110.807 Y281.74 E4.03772
G1 X110.564 Y281.828 E4.05061
G1 X110.343 Y281.897 E4.06216
G1 X109.865 Y282.004 E4.0866
G1 X109.447 Y282.033 E4.1075
G1 X71.283 Y282.012 E6.01151
G1 X70.796 Y281.972 E6.03589
G1 X70.214 Y281.814 E6.06598
G1 X69.421 Y281.511 E6.10833
G1 X68.98 Y281.3 E6.13272
G1 X68.523 Y280.973 E6.16076
G1 X68.101 Y280.606 E6.18866
G1 X67.759 Y280.255 E6.21311
G1 X67.543 Y279.959 E6.23139
G1 X67.234 Y279.476 E6.26
G1 X67.005 Y279.043 E6.28443
G1 X66.881 Y278.699 E6.30268
G1 X66.722 Y278.154 E6.331
G1 X66.624 Y277.675 E6.35539
G1 X66.602 Y277.314 E6.37344
G1 X66.604 Y247.74 E7.84889
G1 X66.644 Y247.252 E7.87332
G1 X66.795 Y246.688 E7.90245
G1 X67.086 Y245.911 E7.94384
G1 X67.294 Y245.468 E7.96826
G1 X67.612 Y245.016 E7.99583
G1 X67.983 Y244.581 E8.02435
G1 X68.33 Y244.236 E8.04877
G1 X68.633 Y244.012 E8.06757
G1 X69.109 Y243.703 E8.09588
G1 X69.539 Y243.471 E8.12025
G1 X69.881 Y243.345 E8.13844
G1 X70.422 Y243.183 E8.16661
G0 F3600 X70.537 Y243.566
G1 F1800 X70.983 Y243.474 E8.18933
G1 X71.282 Y243.457 E8.20427
G1 X109.454 Y243.435 E10.10868
G1 X109.907 Y243.475 E10.13137
G1 X110.302 Y243.577 E10.15172
G1 X110.537 Y243.658 E10.16412
G1 X110.953 Y243.844 E10.18686
G1 X111.331 Y244.099 E10.20961
G1 X111.658 Y244.416 E10.23233
G1 X111.682 Y244.447 E10.23428
G1 X112.003 Y244.695 E10.25452
G1 X112.12 Y244.812 E10.26278
G1 X112.413 Y245.161 E10.28551
G1 X112.64 Y245.556 E10.30824
G1 X112.795 Y245.984 E10.33095
G1 X112.882 Y246.65 E10.36446
G1 X112.882 Y278.417 E11.94932
G1 X112.842 Y278.871 E11.97206
G1 X112.724 Y279.311 E11.99479
G1 X112.53 Y279.723 E12.01751
G1 X112.12 Y280.255 E12.05102
G1 X112.003 Y280.372 E12.05927
G1 X111.654 Y280.665 E12.08201
G1 X111.6 Y280.696 E12.08511
G1 X111.352 Y280.947 E12.10272
G1 X110.98 Y281.21 E12.12544
G1 X110.445 Y281.446 E12.15462
G1 X110.224 Y281.515 E12.16617
G1 X109.779 Y281.612 E12.18889
G1 X109.448 Y281.633 E12.20544
G1 X71.284 Y281.612 E14.10945
G1 X70.83 Y281.572 E14.13219
G1 X70.357 Y281.441 E14.15667
G1 X69.564 Y281.138 E14.19902
G1 X69.154 Y280.938 E14.22178
G1 X68.786 Y280.671 E14.24447
G1 X68.364 Y280.304 E14.27237
G1 X68.048 Y279.976 E14.29509
G1 X67.88 Y279.743 E14.30942
G1 X67.571 Y279.26 E14.33803
G1 X67.36 Y278.856 E14.36077
G1 X67.265 Y278.587 E14.375
G1 X67.106 Y278.042 E14.40332
G1 X67.017 Y277.595 E14.42606
G1 X67.002 Y277.314 E14.4401
G1 X67.004 Y247.74 E15.91555
G1 X67.044 Y247.286 E15.93829
G1 X67.169 Y246.828 E15.96198
G1 X67.46 Y246.051 E16.00337
G1 X67.657 Y245.64 E16.02611
G1 X67.917 Y245.276 E16.04843
G1 X68.288 Y244.841 E16.07695
G1 X68.613 Y244.521 E16.0997
G1 X68.85 Y244.347 E16.11437
G1 X69.326 Y244.038 E16.14269
G1 X69.729 Y243.825 E16.16543
G1 X69.996 Y243.728 E16.1796
G1 X70.537 Y243.566 E16.20777
G0 F3600 X70.652 Y243.949
G1 F1800 X71.063 Y243.868 E16.22867
G1 X71.282 Y243.857 E16.23961
G1 X109.454 Y243.835 E18.14402
G1 X109.871 Y243.875 E18.16492
G1 X110.172 Y243.955 E18.18046
G1 X110.407 Y244.036 E18.19286
G1 X110.788 Y244.21 E18.21376
G1 X111.13 Y244.453 E18.23469
G1 X111.327 Y244.669 E18.24927
G1 X111.362 Y244.687 E18.25124
G1 X111.721 Y244.977 E18.27426
G1 X111.838 Y245.094 E18.28252
G1 X112.104 Y245.418 E18.30343
G1 X112.305 Y245.785 E18.32431
G1 X112.432 Y246.185 E18.34525
G1 X112.482 Y246.65 E18.36858
G1 X112.482 Y278.417 E19.95344
G1 X112.442 Y278.834 E19.97434
G1 X112.324 Y279.236 E19.99524
G1 X112.131 Y279.608 E20.01615
G1 X111.838 Y279.973 E20.0395
G1 X111.721 Y280.09 E20.04776
G1 X111.397 Y280.356 E20.06867
G1 X111.35 Y280.381 E20.07133
G1 X111.067 Y280.664 E20.09129
G1 X110.719 Y280.898 E20.11222
G1 X110.326 Y281.064 E20.1335
G1 X110.105 Y281.133 E20.14505
G1 X109.695 Y281.219 E20.16595
G1 X109.448 Y281.233 E20.17829
G1 X71.284 Y281.212 E22.0823
G1 X70.867 Y281.172 E22.1032
G1 X70.5 Y281.067 E22.12225
G1 X69.707 Y280.764 E22.1646
G1 X69.331 Y280.578 E22.18553
G1 X69.048 Y280.369 E22.20308
G1 X68.626 Y280.002 E22.23098
G1 X68.217 Y279.528 E22.26222
G1 X67.908 Y279.045 E22.29082
G1 X67.649 Y278.475 E22.32206
G1 X67.49 Y277.93 E22.35038
G1 X67.402 Y277.314 E22.38143
G1 X67.404 Y247.74 E23.85688
G1 X67.444 Y247.323 E23.87778
G1 X67.544 Y246.968 E23.89618
G1 X67.835 Y246.191 E23.93757
G1 X68.018 Y245.815 E23.95844
G1 X68.221 Y245.535 E23.97569
G1 X68.592 Y245.1 E24.00421
G1 X68.893 Y244.809 E24.0251
G1 X69.068 Y244.683 E24.03586
G1 X69.544 Y244.374 E24.06417
G1 X70.111 Y244.111 E24.09535
G1 X70.652 Y243.949 E24.12353
G0 F3600 X70.767 Y244.333
G1 F1800 X71.282 Y244.257 E24.1495
G1 X109.454 Y244.235 E26.05391
G1 X109.831 Y244.275 E26.07282
G1 X110.042 Y244.333 E26.08374
G1 X110.277 Y244.414 E26.09614
G1 X110.62 Y244.575 E26.11505
G1 X110.922 Y244.804 E26.13395
G1 X111.1 Y245.006 E26.14739
G1 X111.234 Y245.085 E26.15515
G1 X111.438 Y245.26 E26.16856
G1 X111.555 Y245.377 E26.17681
G1 X111.793 Y245.672 E26.19572
G1 X111.964 Y246.01 E26.21462
G1 X112.061 Y246.376 E26.23351
G1 X112.082 Y246.65 E26.24722
G1 X112.082 Y278.417 E27.83208
G1 X112.042 Y278.794 E27.851
G1 X111.924 Y279.154 E27.8699
G1 X111.734 Y279.481 E27.88877
G1 X111.555 Y279.69 E27.90249
G1 X111.438 Y279.807 E27.91075
G1 X111.143 Y280.045 E27.92966
G1 X111.09 Y280.072 E27.93263
G1 X111.056 Y280.113 E27.93528
G1 X110.785 Y280.377 E27.95416
G1 X110.464 Y280.579 E27.97308
G1 X110.206 Y280.682 E27.98694
G1 X109.985 Y280.751 E27.99849
G1 X109.448 Y280.833 E28.02559
G1 X71.284 Y280.812 E29.9296
G1 X70.907 Y280.772 E29.94852
G1 X70.643 Y280.693 E29.96226
G1 X69.85 Y280.39 E30.00462
G1 X69.512 Y280.219 E30.02352
G1 X69.311 Y280.067 E30.03609
G1 X68.889 Y279.7 E30.06399
G1 X68.554 Y279.312 E30.08956
G1 X68.245 Y278.829 E30.11817
G1 X68.033 Y278.363 E30.14371
G1 X67.874 Y277.818 E30.17204
G1 X67.802 Y277.314 E30.19744
G1 X67.804 Y247.74 E31.67289
G1 X67.844 Y247.363 E31.6918
G1 X67.918 Y247.109 E31.705
G1 X68.209 Y246.332 E31.7464
G1 X68.379 Y245.993 E31.76532
G1 X68.525 Y245.795 E31.77759
G1 X68.896 Y245.36 E31.80611
G1 X69.286 Y245.018 E31.83199
G1 X69.762 Y244.709 E31.8603
G1 X70.226 Y244.495 E31.8858
G1 X70.767 Y244.333 E31.91397
G0 F3600 X70.881 Y244.716
G1 F1800 X71.282 Y244.657 E31.93419
G1 X109.454 Y244.635 E33.8386
G1 X109.911 Y244.711 E33.86171
G1 X110.146 Y244.792 E33.87412
G1 X110.447 Y244.938 E33.89081
G1 X110.704 Y245.151 E33.90746
G1 X110.828 Y245.301 E33.91717
G1 X110.831 Y245.305 E33.91742
G1 X111.155 Y245.543 E33.93747
G1 X111.272 Y245.66 E33.94573
G1 X111.478 Y245.923 E33.9624
G1 X111.617 Y246.227 E33.97907
G1 X111.682 Y246.65 E34.00042
G1 X111.682 Y278.417 E35.58529
G1 X111.642 Y278.749 E35.60197
G1 X111.525 Y279.061 E35.61859
G1 X111.272 Y279.407 E35.63998
G1 X111.155 Y279.524 E35.64823
G1 X110.892 Y279.73 E35.6649
G1 X110.83 Y279.759 E35.66832
G1 X110.748 Y279.857 E35.67469
G1 X110.506 Y280.087 E35.69135
G1 X110.087 Y280.3 E35.7148
G1 X109.866 Y280.369 E35.72635
G1 X109.448 Y280.433 E35.74744
G1 X71.284 Y280.412 E37.65145
G1 X70.953 Y280.372 E37.66809
G1 X70.785 Y280.32 E37.67686
G1 X69.992 Y280.017 E37.71922
G1 X69.573 Y279.765 E37.74361
G1 X69.151 Y279.398 E37.77151
G1 X68.891 Y279.096 E37.79139
G1 X68.582 Y278.613 E37.82
G1 X68.417 Y278.251 E37.83985
G1 X68.258 Y277.706 E37.86817
G1 X68.202 Y277.314 E37.88792
G1 X68.204 Y247.74 E39.36338
G1 X68.293 Y247.249 E39.38827
G1 X68.584 Y246.472 E39.42967
G1 X68.83 Y246.055 E39.45382
G1 X69.201 Y245.62 E39.48234
G1 X69.504 Y245.354 E39.50246
G1 X69.98 Y245.045 E39.53077
G1 X70.34 Y244.878 E39.55057
G1 X70.881 Y244.716 E39.57875
G0 F3600 X70.996 Y245.099
G1 F1800 X71.282 Y245.057 E39.59317
G1 X109.454 Y245.035 E41.49758
G1 X109.781 Y245.09 E41.51412
G1 X110.016 Y245.171 E41.52652
G1 X110.267 Y245.299 E41.54058
G1 X110.503 Y245.534 E41.55719
G1 X110.573 Y245.631 E41.56316
G1 X110.704 Y245.691 E41.57035
G1 X110.872 Y245.826 E41.5811
G1 X110.989 Y245.943 E41.58936
G1 X111.158 Y246.169 E41.60344
G1 X111.258 Y246.433 E41.61752
G1 X111.282 Y246.65 E41.62841
G1 X111.282 Y278.417 E43.21328
G1 X111.242 Y278.696 E43.22734
G1 X111.126 Y278.953 E43.2414
G1 X110.989 Y279.124 E43.25234
G1 X110.872 Y279.241 E43.26059
G1 X110.646 Y279.41 E43.27467
G1 X110.578 Y279.436 E43.2783
G1 X110.44 Y279.602 E43.28907
G1 X110.231 Y279.792 E43.30316
G1 X109.968 Y279.919 E43.31773
G1 X109.747 Y279.988 E43.32929
G1 X109.448 Y280.033 E43.34437
G1 X71.284 Y280.012 E45.24838
G1 X70.928 Y279.946 E45.26644
G1 X70.135 Y279.643 E45.3088
G1 X69.836 Y279.464 E45.32618
G1 X69.414 Y279.097 E45.35408
G1 X69.228 Y278.881 E45.36831
G1 X68.919 Y278.398 E45.39691
G1 X68.801 Y278.139 E45.41111
G1 X68.642 Y277.594 E45.43943
G1 X68.602 Y277.314 E45.45355
G1 X68.604 Y247.74 E46.929
G1 X68.668 Y247.389 E46.9468
G1 X68.959 Y246.612 E46.98819
G1 X69.134 Y246.314 E47.00543
G1 X69.505 Y245.879 E47.03396
G1 X69.722 Y245.689 E47.04835
G1 X70.198 Y245.38 E47.07666
G1 X70.455 Y245.261 E47.09079
G1 X70.996 Y245.099 E47.11896
G0 F3600 X71.111 Y245.482
G1 F1800 X71.283 Y245.457 E47.12764
G1 X109.455 Y245.435 E49.03204
G1 X109.651 Y245.468 E49.04196
G1 X109.886 Y245.549 E49.05436
G1 X110.075 Y245.656 E49.0652
G1 X110.178 Y245.767 E49.07275
G1 X110.314 Y245.957 E49.08441
G1 X110.316 Y245.961 E49.08463
G1 X110.381 Y245.973 E49.08793
G1 X110.589 Y246.109 E49.10033
G1 X110.706 Y246.226 E49.10858
G1 X110.83 Y246.405 E49.11945
G1 X110.882 Y246.65 E49.13194
G1 X110.882 Y278.417 E50.7168
G1 X110.842 Y278.632 E50.72772
G1 X110.706 Y278.841 E50.74016
G1 X110.589 Y278.958 E50.74841
G1 X110.41 Y279.082 E50.75927
G1 X110.323 Y279.1 E50.76371
G1 X110.282 Y279.166 E50.76758
G1 X110.132 Y279.347 E50.77931
G1 X109.965 Y279.487 E50.79018
G1 X109.849 Y279.537 E50.79649
G1 X109.628 Y279.606 E50.80804
G1 X109.449 Y279.633 E50.81707
G1 X71.285 Y279.612 E52.72108
G1 X71.071 Y279.572 E52.73194
G1 X70.278 Y279.269 E52.77429
G1 X70.098 Y279.162 E52.78474
G1 X69.676 Y278.795 E52.81264
G1 X69.565 Y278.665 E52.82117
G1 X69.256 Y278.182 E52.84977
G1 X69.185 Y278.027 E52.85828
G1 X69.026 Y277.482 E52.8866
G1 X69.002 Y277.314 E52.89507
G1 X69.004 Y247.74 E54.37052
G1 X69.042 Y247.53 E54.38117
G1 X69.333 Y246.753 E54.42256
G1 X69.438 Y246.574 E54.43292
G1 X69.809 Y246.139 E54.46144
G1 X69.939 Y246.025 E54.47007
G1 X70.415 Y245.716 E54.49838
G1 X70.57 Y245.644 E54.50691
G1 X71.111 Y245.482 E54.53508
G0 F3600 X71.283 Y245.857
G1 F1800 X109.455 Y245.835 E56.43949
G1 X109.52 Y245.846 E56.44278
G1 X109.755 Y245.927 E56.45518
G1 X109.853 Y246 E56.46128
G1 X109.989 Y246.19 E56.47293
G1 X110.026 Y246.295 E56.47849
G1 X110.028 Y246.333 E56.48039
G1 X110.166 Y246.333 E56.48727
G1 X110.306 Y246.392 E56.49485
G1 X110.423 Y246.509 E56.50311
G1 X110.482 Y246.65 E56.51073
G1 X110.482 Y278.417 E58.09559
G1 X110.423 Y278.558 E58.10322
G1 X110.306 Y278.675 E58.11147
G1 X110.165 Y278.734 E58.1191
G1 X110.024 Y278.734 E58.12613
G1 X110.02 Y278.797 E58.12928
G1 X109.974 Y278.911 E58.13542
G1 X109.824 Y279.092 E58.14715
G1 X109.73 Y279.155 E58.15279
G1 X109.509 Y279.224 E58.16434
G1 X109.449 Y279.233 E58.16737
G1 X71.285 Y279.212 E60.07138
G1 X71.214 Y279.199 E60.07498
G1 X70.421 Y278.896 E60.11733
G1 X70.361 Y278.86 E60.12082
G1 X69.939 Y278.493 E60.14872
G1 X69.902 Y278.45 E60.15155
G1 X69.593 Y277.967 E60.18016
G1 X69.569 Y277.915 E60.18302
G1 X69.41 Y277.37 E60.21134
G1 X69.402 Y277.314 E60.21416
G1 X69.404 Y247.74 E61.68962
G1 X69.417 Y247.67 E61.69317
G1 X69.708 Y246.893 E61.73456
G1 X69.743 Y246.833 E61.73803
G1 X70.114 Y246.398 E61.76655
G1 X70.157 Y246.36 E61.76941
G1 X70.633 Y246.051 E61.79773
G1 X70.685 Y246.027 E61.80058
G1 X71.226 Y245.865 E61.82876
G1 X71.283 Y245.857 E61.83163
G0 F3600 X71.648 Y246.234
;TYPE:WALL-OUTER
G1 F1800 X109.371 Y246.234 E63.71364
G1 X109.432 Y246.234 E63.71668
G1 X109.511 Y246.247 E63.72068
G1 X109.562 Y246.271 E63.72349
G1 X109.607 Y246.314 E63.72659
G1 X109.634 Y246.363 E63.72939
G1 X109.647 Y246.426 E63.73259
G1 X109.645 Y246.452 E63.7339
G1 X109.642 Y246.486 E63.7356
G1 X109.619 Y246.731 E63.74788
G1 X109.645 Y246.731 E63.74906
G1 X110.082 Y246.733 E63.77086
G1 X110.082 Y278.334 E65.34744
G1 X109.648 Y278.334 E65.36909
G1 X109.614 Y278.334 E65.37079
G1 X109.641 Y278.579 E65.38309
G1 X109.648 Y278.645 E65.3864
G1 X109.637 Y278.702 E65.3893
G1 X109.61 Y278.751 E65.39209
G1 X109.566 Y278.793 E65.39512
G1 X109.508 Y278.822 E65.39836
G1 X109.441 Y278.833 E65.40174
G1 X109.374 Y278.833 E65.40509
G1 X71.596 Y278.834 E67.28984
G1 X71.32 Y278.815 E67.30364
G1 X71.075 Y278.761 E67.31616
G1 X70.839 Y278.673 E67.32872
G1 X70.607 Y278.546 E67.34192
G1 X70.401 Y278.392 E67.35475
G1 X70.225 Y278.216 E67.36717
G1 X70.067 Y278.004 E67.38036
G1 X69.945 Y277.782 E67.393
G1 X69.855 Y277.539 E67.40593
G1 X69.801 Y277.292 E67.41854
G1 X69.782 Y277.034 E67.43145
G1 X69.782 Y248.034 E68.87826
G1 X69.801 Y247.776 E68.89117
G1 X69.855 Y247.529 E68.90378
G1 X69.945 Y247.286 E68.91671
G1 X70.067 Y247.064 E68.92935
G1 X70.222 Y246.857 E68.94225
G1 X70.405 Y246.673 E68.9552
G1 X70.612 Y246.519 E68.96807
G1 X70.834 Y246.397 E68.98071
G1 X71.077 Y246.307 E68.99363
G1 X71.319 Y246.254 E69.00599
G1 X71.648 Y246.234 E69.02244
G0 F3600 X71.848 Y246.234
G0 X71.848 Y246.734
G0 X96.446 Y267.387
G0 X96.867 Y267.654
G1 F1800 X96.766 Y267.815 E69.03192
G1 X96.703 Y267.994 E69.04139
G1 X96.682 Y268.172 E69.05033
G1 X96.682 Y270.896 E69.18623
G1 X96.703 Y271.075 E69.19522
G1 X96.766 Y271.253 E69.20464
G1 X96.867 Y271.414 E69.21412
G1 X97.001 Y271.549 E69.22361
G1 X97.163 Y271.651 E69.23316
G1 X97.342 Y271.714 E69.24263
G1 X97.521 Y271.734 E69.25162
G1 X98.243 Y271.734 E69.28764
G1 X98.423 Y271.714 E69.29667
G1 X98.602 Y271.651 E69.30614
G1 X98.762 Y271.549 E69.31561
G1 X98.898 Y271.415 E69.32513
G1 X98.999 Y271.253 E69.33466
G1 X99.062 Y271.075 E69.34408
G1 X99.082 Y270.895 E69.35311
G1 X99.082 Y268.173 E69.48891
G1 X99.062 Y267.994 E69.4979
G1 X98.999 Y267.815 E69.50737
G1 X98.898 Y267.653 E69.51689
G1 X98.762 Y267.518 E69.52645
G1 X98.601 Y267.418 E69.53591
G1 X98.423 Y267.355 E69.54533
G1 X98.244 Y267.334 E69.55432
G1 X97.52 Y267.334 E69.59044
G1 X97.342 Y267.355 E69.59938
G1 X97.164 Y267.418 E69.6088
G1 X97.002 Y267.518 E69.6183
G1 X96.867 Y267.654 E69.62786
G0 F3600 X96.766 Y267.815
G0 X96.763 Y267.824
G0 X96.403 Y267.64
;TYPE:WALL-INNER
