;FLAVOR:RepRap
;TIME:1506
;Filament used: 1.15757m
;Layer height: 0.15
;Generated with Cura_SteamEngine 2.6.0
M190 S60
M104 S200
M109 S200
G21;metric values
G90;absolute positioning
M82;set extruder to absolute mode
M107;start with the fan off
G28 X0 Y0;move X/Y to min endstops
G28 Z0;move Z to min endstops
G1 Z15.0 F4200 ;move the platform down 15mm
G92 E0;zero the extruded length
G1 F200 E4;extrude 4mm of feed stock
G92 E0;zero the extruded length again
G1 F4200;Put printing message on LCD screen
M117 Printing...
;LAYER_COUNT:62
;LAYER:0
M107
G0 F3600 X129.759 Y253.778 Z0.3
;TYPE:SKIRT
G1 F1800 X130.206 Y253.579 E0.02441
G1 X130.816 Y253.435 E0.05568
G1 X131.427 Y253.357 E0.08641
G1 X131.809 Y253.333 E0.10551
G1 X169.649 Y253.359 E1.99335
G1 X170.137 Y253.399 E2.01778
G1 X170.612 Y253.518 E2.04221
G1 X171.015 Y253.689 E2.06405
G1 X171.335 Y253.853 E2.08199
G1 X171.751 Y254.111 E2.10641
G1 X172.12 Y254.433 E2.13085
G1 X172.431 Y254.811 E2.15527
G1 X172.565 Y255.023 E2.16778
G1 X172.834 Y255.489 E2.19462
G1 X173.043 Y255.932 E2.21906
G1 X173.178 Y256.402 E2.24346
G1 X173.236 Y256.989 E2.27289
G1 X173.233 Y289.691 E3.9044
G1 X173.193 Y290.179 E3.92882
G1 X173.074 Y290.654 E3.95325
G1 X172.966 Y290.928 E3.96795
G1 X172.818 Y291.255 E3.98585
G1 X172.581 Y291.683 E4.01026
G1 X172.277 Y292.067 E4.0347
G1 X171.914 Y292.396 E4.05914
G1 X171.699 Y292.547 E4.07225
G1 X171.24 Y292.84 E4.09941
G1 X170.807 Y293.069 E4.12385
G1 X170.343 Y293.224 E4.14826
G1 X169.628 Y293.311 E4.18419
G1 X131.742 Y293.333 E6.07433
G1 X131.091 Y293.262 E6.107
G1 X130.265 Y293.079 E6.14921
G1 X129.797 Y292.934 E6.17366
G1 X129.287 Y292.671 E6.20228
G1 X128.816 Y292.367 E6.23025
G1 X128.428 Y292.068 E6.25469
G1 X128.177 Y291.812 E6.27258
G1 X127.803 Y291.381 E6.30105
G1 X127.514 Y290.987 E6.32542
G1 X127.259 Y290.466 E6.35436
G1 X126.96 Y289.667 E6.39693
G1 X126.827 Y289.197 E6.42129
G1 X126.77 Y288.616 E6.45042
G1 X126.772 Y258.035 E7.97611
G1 X126.812 Y257.547 E8.00054
G1 X126.966 Y256.974 E8.03014
G1 X127.261 Y256.194 E8.07175
G1 X127.471 Y255.752 E8.09616
G1 X127.787 Y255.306 E8.12343
G1 X128.152 Y254.879 E8.15146
G1 X128.499 Y254.534 E8.17587
G1 X128.995 Y254.195 E8.20584
G1 X129.759 Y253.778 E8.24926
G0 F3600 X129.95 Y254.129
G1 F1800 X130.368 Y253.946 E8.27203
G1 X130.867 Y253.832 E8.29757
G1 X131.478 Y253.754 E8.3283
G1 X131.809 Y253.733 E8.34484
G1 X169.649 Y253.759 E10.23269
G1 X170.103 Y253.799 E10.25543
G1 X170.542 Y253.918 E10.27812
G1 X170.833 Y254.045 E10.29396
G1 X171.153 Y254.209 E10.3119
G1 X171.539 Y254.452 E10.33466
G1 X171.876 Y254.758 E10.35737
G1 X172.219 Y255.223 E10.38619
G1 X172.488 Y255.689 E10.41304
G1 X172.68 Y256.102 E10.43576
G1 X172.797 Y256.542 E10.45847
G1 X172.836 Y256.989 E10.48086
G1 X172.833 Y289.691 E12.11237
G1 X172.793 Y290.145 E12.13511
G1 X172.602 Y290.763 E12.16738
G1 X172.454 Y291.09 E12.18528
G1 X172.23 Y291.487 E12.20803
G1 X171.941 Y291.839 E12.23075
G1 X171.484 Y292.21 E12.26012
G1 X171.025 Y292.503 E12.28728
G1 X170.621 Y292.713 E12.31
G1 X170.186 Y292.85 E12.33275
G1 X169.628 Y292.911 E12.36076
G1 X131.742 Y292.933 E14.2509
G1 X131.178 Y292.871 E14.2792
G1 X130.352 Y292.688 E14.32141
G1 X129.917 Y292.551 E14.34417
G1 X129.504 Y292.334 E14.36744
G1 X129.033 Y292.03 E14.39541
G1 X128.673 Y291.751 E14.41813
G1 X128.479 Y291.55 E14.43207
G1 X128.105 Y291.119 E14.46054
G1 X127.838 Y290.75 E14.48326
G1 X127.634 Y290.326 E14.50674
G1 X127.335 Y289.527 E14.5493
G1 X127.213 Y289.088 E14.57203
G1 X127.17 Y288.616 E14.59568
G1 X127.172 Y258.035 E16.12137
G1 X127.212 Y257.581 E16.14411
G1 X127.34 Y257.115 E16.16822
G1 X127.635 Y256.335 E16.20982
G1 X127.833 Y255.925 E16.23254
G1 X128.091 Y255.566 E16.25459
G1 X128.456 Y255.139 E16.28262
G1 X128.781 Y254.82 E16.30534
G1 X129.186 Y254.546 E16.32973
G1 X129.95 Y254.129 E16.37316
G0 F3600 X130.142 Y254.48
G1 F1800 X130.527 Y254.315 E16.39405
G1 X130.917 Y254.229 E16.41398
G1 X131.528 Y254.151 E16.44471
G1 X131.809 Y254.133 E16.45876
G1 X169.649 Y254.159 E18.3466
G1 X170.066 Y254.199 E18.3675
G1 X170.65 Y254.401 E18.39833
G1 X170.97 Y254.565 E18.41627
G1 X171.323 Y254.791 E18.43718
G1 X171.627 Y255.08 E18.45811
G1 X171.872 Y255.423 E18.47914
G1 X172.141 Y255.889 E18.50598
G1 X172.315 Y256.27 E18.52688
G1 X172.414 Y256.678 E18.54783
G1 X172.436 Y256.989 E18.56338
G1 X172.433 Y289.691 E20.19489
G1 X172.393 Y290.108 E20.21579
G1 X172.237 Y290.598 E20.24144
G1 X172.089 Y290.925 E20.25935
G1 X171.881 Y291.289 E20.28027
G1 X171.607 Y291.606 E20.30117
G1 X171.269 Y291.872 E20.32263
G1 X170.81 Y292.165 E20.3498
G1 X170.437 Y292.356 E20.37071
G1 X170.034 Y292.473 E20.39164
G1 X169.627 Y292.511 E20.41203
G1 X131.741 Y292.533 E22.30218
G1 X131.264 Y292.481 E22.32611
G1 X130.438 Y292.298 E22.36832
G1 X130.039 Y292.169 E22.38924
G1 X129.721 Y291.998 E22.40726
G1 X129.25 Y291.694 E22.43522
G1 X128.781 Y291.288 E22.46617
G1 X128.407 Y290.857 E22.49464
G1 X128.164 Y290.516 E22.51553
G1 X128.009 Y290.186 E22.53372
G1 X127.71 Y289.387 E22.57628
G1 X127.601 Y288.982 E22.59721
G1 X127.57 Y288.616 E22.61553
G1 X127.572 Y258.035 E24.14123
G1 X127.612 Y257.618 E24.16213
G1 X127.714 Y257.257 E24.18084
G1 X128.009 Y256.477 E24.22245
G1 X128.194 Y256.101 E24.24335
G1 X128.395 Y255.826 E24.26035
G1 X128.76 Y255.399 E24.28837
G1 X129.061 Y255.107 E24.30929
G1 X129.378 Y254.897 E24.32826
G1 X130.142 Y254.48 E24.37169
G0 F3600 X130.334 Y254.831
G1 F1800 X130.684 Y254.685 E24.39061
G1 X130.968 Y254.625 E24.40509
G1 X131.579 Y254.547 E24.43582
G1 X131.808 Y254.533 E24.44727
G1 X169.648 Y254.559 E26.33511
G1 X170.025 Y254.599 E26.35403
G1 X170.468 Y254.757 E26.37749
G1 X170.788 Y254.921 E26.39543
G1 X171.105 Y255.128 E26.41432
G1 X171.372 Y255.398 E26.43326
G1 X171.526 Y255.623 E26.44687
G1 X171.795 Y256.089 E26.47371
G1 X171.949 Y256.435 E26.4926
G1 X172.036 Y256.989 E26.52058
G1 X172.033 Y289.691 E28.15209
G1 X171.993 Y290.068 E28.17101
G1 X171.873 Y290.433 E28.19017
G1 X171.725 Y290.76 E28.20808
G1 X171.533 Y291.087 E28.227
G1 X171.277 Y291.367 E28.24593
G1 X171.054 Y291.535 E28.25986
G1 X170.595 Y291.828 E28.28703
G1 X170.255 Y291.997 E28.30597
G1 X169.888 Y292.092 E28.32488
G1 X169.627 Y292.111 E28.33794
G1 X131.741 Y292.133 E30.22808
G1 X131.351 Y292.09 E30.24765
G1 X130.525 Y291.907 E30.28986
G1 X130.165 Y291.787 E30.30879
G1 X129.938 Y291.662 E30.32172
G1 X129.467 Y291.358 E30.34969
G1 X129.083 Y291.026 E30.37501
G1 X128.709 Y290.595 E30.40348
G1 X128.493 Y290.284 E30.42238
G1 X128.383 Y290.046 E30.43546
G1 X128.084 Y289.247 E30.47802
G1 X127.989 Y288.88 E30.49693
G1 X127.97 Y288.616 E30.51014
G1 X127.972 Y258.035 E32.03583
G1 X128.012 Y257.658 E32.05474
G1 X128.088 Y257.398 E32.06826
G1 X128.383 Y256.618 E32.10986
G1 X128.554 Y256.28 E32.12876
G1 X128.699 Y256.085 E32.14088
G1 X129.064 Y255.658 E32.16891
G1 X129.339 Y255.398 E32.18779
G1 X129.57 Y255.248 E32.20153
G1 X130.334 Y254.831 E32.24495
G0 F3600 X131.019 Y255.022
G1 F1800 X131.63 Y254.944 E32.27569
G1 X131.808 Y254.933 E32.28458
G1 X169.648 Y254.959 E34.17243
G1 X169.98 Y254.999 E34.18911
G1 X170.286 Y255.113 E34.2054
G1 X170.606 Y255.277 E34.22334
G1 X170.883 Y255.464 E34.24002
G1 X171.179 Y255.823 E34.26323
G1 X171.448 Y256.289 E34.29007
G1 X171.58 Y256.596 E34.30675
G1 X171.636 Y256.989 E34.32655
G1 X171.633 Y289.691 E35.95806
G1 X171.593 Y290.023 E35.97474
G1 X171.508 Y290.268 E35.98768
G1 X171.36 Y290.595 E36.00559
G1 X171.187 Y290.881 E36.02226
G1 X170.838 Y291.198 E36.04579
G1 X170.379 Y291.491 E36.07295
G1 X170.078 Y291.636 E36.08962
G1 X169.627 Y291.711 E36.11243
G1 X131.741 Y291.733 E38.00257
G1 X131.437 Y291.7 E38.01783
G1 X130.611 Y291.517 E38.06004
G1 X130.155 Y291.326 E38.0847
G1 X129.684 Y291.022 E38.11267
G1 X129.386 Y290.764 E38.13234
G1 X129.012 Y290.333 E38.1608
G1 X128.758 Y289.906 E38.18559
G1 X128.459 Y289.107 E38.22815
G1 X128.37 Y288.616 E38.25305
G1 X128.372 Y258.035 E39.77874
G1 X128.412 Y257.703 E39.79542
G1 X128.463 Y257.54 E39.80395
G1 X128.758 Y256.76 E39.84555
G1 X129.003 Y256.345 E39.86959
G1 X129.368 Y255.918 E39.89762
G1 X129.614 Y255.692 E39.91428
G1 X129.761 Y255.599 E39.92296
G1 X130.525 Y255.182 E39.96639
G1 X130.836 Y255.058 E39.98309
G1 X131.019 Y255.022 E39.9924
G0 F3600 X131.68 Y255.341
G1 F1800 X131.808 Y255.333 E39.99879
G1 X169.648 Y255.359 E41.88664
G1 X169.927 Y255.399 E41.9007
G1 X170.103 Y255.469 E41.91015
G1 X170.423 Y255.633 E41.92809
G1 X170.654 Y255.796 E41.9422
G1 X170.833 Y256.023 E41.95662
G1 X171.102 Y256.489 E41.98346
G1 X171.207 Y256.751 E41.99754
G1 X171.236 Y256.989 E42.00951
G1 X171.233 Y289.691 E43.64102
G1 X171.193 Y289.97 E43.65508
G1 X171.144 Y290.103 E43.66215
G1 X170.996 Y290.43 E43.68006
G1 X170.845 Y290.668 E43.69412
G1 X170.623 Y290.861 E43.70879
G1 X170.164 Y291.154 E43.73596
G1 X169.907 Y291.271 E43.75005
G1 X169.627 Y291.311 E43.76416
G1 X131.741 Y291.333 E45.6543
G1 X131.524 Y291.309 E45.66519
G1 X130.698 Y291.126 E45.7074
G1 X130.372 Y290.99 E45.72502
G1 X129.901 Y290.686 E45.75299
G1 X129.688 Y290.501 E45.76707
G1 X129.314 Y290.07 E45.79554
G1 X129.132 Y289.765 E45.81326
G1 X128.833 Y288.966 E45.85582
G1 X128.77 Y288.616 E45.87356
G1 X128.772 Y258.035 E47.39925
G1 X128.837 Y257.681 E47.41721
G1 X129.132 Y256.901 E47.45881
G1 X129.307 Y256.605 E47.47597
G1 X129.672 Y256.178 E47.50399
G1 X129.953 Y255.95 E47.52205
G1 X130.717 Y255.533 E47.56547
G1 X131.069 Y255.419 E47.58393
G1 X131.68 Y255.341 E47.61466
G0 F3600 X131.731 Y255.738
G1 F1800 X131.807 Y255.733 E47.61846
G1 X169.647 Y255.759 E49.50631
G1 X169.921 Y255.825 E49.52037
G1 X170.241 Y255.989 E49.53831
G1 X170.413 Y256.122 E49.54916
G1 X170.487 Y256.223 E49.5554
G1 X170.756 Y256.689 E49.58225
G1 X170.836 Y256.989 E49.59774
G1 X170.833 Y289.691 E51.22925
G1 X170.78 Y289.938 E51.24185
G1 X170.632 Y290.265 E51.25976
G1 X170.507 Y290.444 E51.27065
G1 X170.408 Y290.524 E51.277
G1 X169.949 Y290.817 E51.30417
G1 X169.747 Y290.899 E51.31504
G1 X169.626 Y290.911 E51.32111
G1 X131.74 Y290.933 E53.21125
G1 X131.61 Y290.919 E53.21777
G1 X130.784 Y290.736 E53.25998
G1 X130.589 Y290.654 E53.27054
G1 X130.118 Y290.35 E53.2985
G1 X129.99 Y290.239 E53.30696
G1 X129.616 Y289.808 E53.33543
G1 X129.507 Y289.625 E53.34605
G1 X129.208 Y288.826 E53.38861
G1 X129.17 Y288.616 E53.39926
G1 X129.172 Y258.035 E54.92495
G1 X129.211 Y257.823 E54.93571
G1 X129.506 Y257.043 E54.97731
G1 X129.611 Y256.865 E54.98762
G1 X129.976 Y256.438 E55.01565
G1 X130.145 Y256.301 E55.0265
G1 X130.909 Y255.884 E55.06993
G1 X131.12 Y255.816 E55.08099
G1 X131.731 Y255.738 E55.11172
G0 F3600 X131.782 Y256.135
G1 F1800 X131.807 Y256.133 E55.11297
G1 X169.647 Y256.159 E57.00081
G1 X169.738 Y256.181 E57.00548
G1 X170.058 Y256.345 E57.02342
G1 X170.14 Y256.423 E57.02907
G1 X170.409 Y256.889 E57.05591
G1 X170.436 Y256.989 E57.06108
G1 X170.433 Y289.691 E58.69259
G1 X170.415 Y289.773 E58.69678
G1 X170.267 Y290.1 E58.71469
G1 X170.193 Y290.187 E58.72038
G1 X169.734 Y290.48 E58.74755
G1 X169.626 Y290.511 E58.75316
G1 X131.74 Y290.533 E60.6433
G1 X131.697 Y290.528 E60.64546
G1 X130.871 Y290.345 E60.68767
G1 X130.806 Y290.318 E60.69118
G1 X130.335 Y290.014 E60.71915
G1 X130.292 Y289.977 E60.72198
G1 X129.918 Y289.546 E60.75045
G1 X129.882 Y289.485 E60.75398
G1 X129.583 Y288.686 E60.79654
G1 X129.57 Y288.616 E60.80009
G1 X129.572 Y258.035 E62.32579
G1 X129.585 Y257.964 E62.32939
G1 X129.88 Y257.184 E62.37099
G1 X129.915 Y257.125 E62.37441
G1 X130.28 Y256.698 E62.40244
G1 X130.336 Y256.652 E62.40606
G1 X131.1 Y256.235 E62.44948
G1 X131.171 Y256.213 E62.45319
G1 X131.782 Y256.135 E62.48392
G0 F3600 X131.816 Y256.533
;TYPE:WALL-OUTER
G1 F1800 X169.437 Y256.533 E64.36084
G1 X169.592 Y256.551 E64.36862
G1 X169.713 Y256.594 E64.37503
G1 X169.831 Y256.67 E64.38203
G1 X169.926 Y256.77 E64.38891
G1 X169.996 Y256.887 E64.39571
G1 X170.037 Y257.016 E64.40247
G1 X170.05 Y257.225 E64.41291
G1 X170.05 Y289.5 E66.02312
G1 X170.039 Y289.642 E66.03023
G1 X169.999 Y289.774 E66.03711
G1 X169.931 Y289.889 E66.04377
G1 X169.834 Y289.991 E66.0508
G1 X169.721 Y290.066 E66.05756
G1 X169.589 Y290.114 E66.06457
G1 X169.447 Y290.132 E66.07171
G1 X131.751 Y290.133 E67.95237
G1 X131.492 Y290.114 E67.96533
G1 X131.245 Y290.06 E67.97794
G1 X131.002 Y289.97 E67.99087
G1 X130.78 Y289.848 E68.00351
G1 X130.568 Y289.69 E68.0167
G1 X130.392 Y289.514 E68.02912
G1 X130.235 Y289.303 E68.04224
G1 X130.113 Y289.081 E68.05488
G1 X130.023 Y288.84 E68.06771
G1 X129.969 Y288.595 E68.08023
G1 X129.95 Y288.319 E68.09403
G1 X129.95 Y258.347 E69.58934
G1 X129.969 Y258.07 E69.60319
G1 X130.023 Y257.827 E69.61561
G1 X130.111 Y257.59 E69.62822
G1 X130.239 Y257.356 E69.64153
G1 X130.392 Y257.151 E69.65429
G1 X130.568 Y256.975 E69.66671
G1 X130.78 Y256.817 E69.6799
G1 X130.998 Y256.697 E69.69231
G1 X131.247 Y256.605 E69.70556
G1 X131.487 Y256.552 E69.71782
G1 X131.816 Y256.533 E69.73426
G0 F3600 X132.016 Y256.533
G0 X132.016 Y257.033
G0 X156.25 Y279.168
G0 X156.664 Y279.447
G1 F1800 X156.576 Y279.579 E69.74218
G1 X156.55 Y279.714 E69.74904
G1 X156.55 Y281.353 E69.83081
G1 X156.576 Y281.486 E69.83757
G1 X156.664 Y281.618 E69.84548
G1 X156.795 Y281.705 E69.85333
G1 X156.929 Y281.733 E69.86016
G1 X157.571 Y281.733 E69.89219
G1 X157.705 Y281.705 E69.89902
G1 X157.834 Y281.619 E69.90675
G1 X157.923 Y281.488 E69.91465
G1 X157.95 Y281.353 E69.92152
G1 X157.95 Y279.714 E70.00329
G1 X157.924 Y279.578 E70.0102
G1 X157.834 Y279.446 E70.01817
G1 X157.703 Y279.359 E70.02601
G1 X157.57 Y279.333 E70.03278
G1 X156.931 Y279.333 E70.06466
G1 X156.796 Y279.359 E70.07151
G1 X156.664 Y279.447 E70.07943
G0 F3600 X156.576 Y279.579
G0 X156.569 Y279.62
G0 X156.198 Y279.424
;TYPE:WALL-INNER
G1 F1800 X156.15 Y279.676 E70.09223
G1 X156.15 Y281.392 E70.17784
G1 X156.199 Y281.641 E70.1905
G1 X156.376 Y281.907 E70.20644
G1 X156.638 Y282.081 E70.22213
G1 X156.888 Y282.133 E70.23487
G1 X157.612 Y282.133 E70.27099
G1 X157.863 Y282.081 E70.28378
G1 X158.121 Y281.908 E70.29928
G1 X158.299 Y281.646 E70.31508
G1 X158.35 Y281.393 E70.32796
G1 X158.35 Y279.676 E70.41362
G1 X158.301 Y279.421 E70.42657
G1 X158.12 Y279.156 E70.44258
G1 X157.858 Y278.982 E70.45827
G1 X157.609 Y278.933 E70.47093
G1 X156.893 Y278.933 E70.50666
G1 X156.641 Y278.981 E70.51945
G1 X156.376 Y279.159 E70.53538
G1 X156.198 Y279.424 E70.55131
G0 F3600 X156.106 Y279.387
G0 X156.626 Y278.944
G0 X157.612 Y278.894
G0 X157.873 Y278.946
G0 X158.148 Y279.128
G0 X169.415 Y289.633
G0 X169.421 Y289.732
G1 F1800 X131.766 Y289.733 E72.42992
G1 X131.55 Y289.717 E72.44073
G1 X131.356 Y289.675 E72.45063
G1 X131.173 Y289.607 E72.46037
G1 X130.995 Y289.509 E72.47051
G1 X130.831 Y289.387 E72.48071
G1 X130.696 Y289.252 E72.49023
G1 X130.574 Y289.088 E72.50043
G1 X130.477 Y288.912 E72.51046
G1 X130.408 Y288.727 E72.52031
G1 X130.366 Y288.535 E72.53011
G1 X130.35 Y288.307 E72.54151
G1 X130.35 Y258.359 E74.03563
G1 X130.366 Y258.125 E74.04733
G1 X130.407 Y257.943 E74.05664
G1 X130.475 Y257.757 E74.06652
G1 X130.576 Y257.573 E74.07699
G1 X130.695 Y257.414 E74.0869
G1 X130.831 Y257.278 E74.09649
G1 X131.002 Y257.151 E74.10712
G1 X131.163 Y257.062 E74.1163
G1 X131.357 Y256.991 E74.1266
G1 X131.546 Y256.949 E74.13626
G1 X131.822 Y256.933 E74.15005
G1 X169.417 Y256.933 E76.02568
G1 X169.499 Y256.943 E76.0298
G1 X169.574 Y256.98 E76.03397
G1 X169.606 Y257.013 E76.03626
G1 X169.629 Y257.052 E76.03852
G1 X169.641 Y257.09 E76.04051
G1 X169.65 Y257.234 E76.04771
G1 X169.65 Y289.482 E77.65657
G1 X169.643 Y289.568 E77.66087
G1 X169.63 Y289.613 E77.66321
G1 X169.611 Y289.645 E77.66507
G1 X169.573 Y289.685 E77.66782
G1 X169.542 Y289.705 E77.66966
G1 X169.494 Y289.723 E77.67222
