;FLAVOR:RepRap
;TIME:1525
;Filament used: 1.06045m
;Layer height: 0.15
;Generated with Cura_SteamEngine 2.6.0
M190 S60
M104 S200
M109 S200
G21;metric values
G90;absolute positioning
M82;set extruder to absolute mode
M107;start with the fan off
G28 X0 Y0;move X/Y to min endstops
G28 Z0;move Z to min endstops
G1 Z15.0 F4200 ;move the platform down 15mm
G92 E0;zero the extruded length
G1 F200 E4;extrude 4mm of feed stock
G92 E0;zero the extruded length again
G1 F4200;Put printing message on LCD screen
M117 Printing...
;LAYER_COUNT:32
;LAYER:0
M107
G0 F3600 X13.377 Y255.352 Z0.3
;TYPE:SKIRT
G1 F1200 X53.444 Y255.405 E1.99895
G1 X53.821 Y255.445 E2.01787
G1 X54.181 Y255.564 E2.03678
G1 X54.65 Y255.871 E2.06475
G1 X54.946 Y256.139 E2.08467
G1 X55.199 Y256.421 E2.10357
G1 X55.387 Y256.75 E2.12248
G1 X55.492 Y257.068 E2.13918
G1 X55.561 Y257.367 E2.15449
G1 X55.607 Y257.743 E2.17339
G1 X55.573 Y258.121 E2.19233
G1 X55.439 Y258.53 E2.2138
G1 X53.597 Y262.495 E2.43192
G1 X53.596 Y262.536 E2.43396
G1 X53.501 Y263.053 E2.46019
G1 X52.622 Y265.642 E2.5966
G1 X52.618 Y265.77 E2.60298
G1 X52.58 Y266.09 E2.61906
G1 X51.882 Y269.379 E2.7868
G1 X51.893 Y269.496 E2.79267
G1 X51.894 Y269.825 E2.80908
G1 X51.68 Y272.289 E2.93247
G1 X51.644 Y274.318 E3.03372
G1 X51.767 Y276.695 E3.15246
G1 X52.137 Y279.494 E3.29332
G1 X52.504 Y281.26 E3.38331
G1 X53.112 Y283.493 E3.49877
G1 X53.848 Y285.573 E3.60885
G1 X54.54 Y287.22 E3.69797
G1 X55.402 Y288.999 E3.7966
G1 X55.53 Y289.356 E3.81552
G1 X55.569 Y289.571 E3.82642
G1 X55.593 Y289.772 E3.83652
G1 X55.598 Y290.151 E3.85543
G1 X55.503 Y290.584 E3.87755
G1 X55.39 Y290.904 E3.89448
G1 X55.227 Y291.246 E3.91338
G1 X54.996 Y291.547 E3.93231
G1 X54.839 Y291.693 E3.94301
G1 X54.609 Y291.883 E3.95789
G1 X54.293 Y292.092 E3.97679
G1 X53.941 Y292.23 E3.99565
G1 X53.466 Y292.295 E4.01957
G1 X13.378 Y292.352 E6.01957
G1 X13.001 Y292.313 E6.03848
G1 X12.64 Y292.195 E6.05743
G1 X12.313 Y292.005 E6.0763
G1 X12.102 Y291.825 E6.09013
G1 X11.868 Y291.591 E6.10664
G1 X11.63 Y291.296 E6.12555
G1 X11.459 Y290.958 E6.14445
G1 X11.362 Y290.592 E6.16334
G1 X11.341 Y290.318 E6.17705
G1 X11.341 Y257.386 E7.82004
G1 X11.381 Y257.009 E7.83895
G1 X11.499 Y256.649 E7.85785
G1 X11.689 Y256.322 E7.87672
G1 X11.868 Y256.113 E7.89045
G1 X12.102 Y255.879 E7.90696
G1 X12.397 Y255.641 E7.92587
G1 X12.735 Y255.47 E7.94477
G1 X13.101 Y255.373 E7.96366
G1 X13.377 Y255.352 E7.97747
G0 F3600 X13.377 Y255.752
G1 F1200 X53.444 Y255.805 E9.97642
G1 X53.775 Y255.845 E9.99305
G1 X54.088 Y255.963 E10.00974
G1 X54.382 Y256.167 E10.02759
G1 X54.678 Y256.435 E10.04752
G1 X54.897 Y256.687 E10.06417
G1 X55.05 Y256.984 E10.08084
G1 X55.102 Y257.158 E10.0899
G1 X55.171 Y257.457 E10.10521
G1 X55.207 Y257.789 E10.12187
G1 X55.163 Y258.121 E10.13858
G1 X55.077 Y258.362 E10.15134
G1 X53.2 Y262.403 E10.37364
G1 X53.196 Y262.522 E10.37958
G1 X53.123 Y262.924 E10.39996
G1 X52.224 Y265.573 E10.53952
G1 X52.218 Y265.758 E10.54876
G1 X52.188 Y266.007 E10.56127
G1 X51.477 Y269.353 E10.73193
G1 X51.495 Y269.534 E10.74101
G1 X51.496 Y269.79 E10.75378
G1 X51.28 Y272.276 E10.87827
G1 X51.244 Y274.332 E10.98086
G1 X51.367 Y276.717 E11.10001
G1 X51.742 Y279.555 E11.24283
G1 X52.117 Y281.361 E11.33485
G1 X52.73 Y283.609 E11.4511
G1 X53.472 Y285.71 E11.56226
G1 X54.182 Y287.399 E11.65367
G1 X55.042 Y289.174 E11.75207
G1 X55.172 Y289.618 E11.77515
G1 X55.196 Y289.819 E11.78525
G1 X55.196 Y290.153 E11.80192
G1 X55.126 Y290.451 E11.81719
G1 X55.013 Y290.771 E11.83412
G1 X54.865 Y291.071 E11.85081
G1 X54.585 Y291.384 E11.87176
G1 X54.355 Y291.574 E11.88664
G1 X54.074 Y291.755 E11.90332
G1 X53.758 Y291.864 E11.92
G1 X53.465 Y291.895 E11.9347
G1 X13.377 Y291.952 E13.9347
G1 X13.045 Y291.913 E13.95137
G1 X12.732 Y291.796 E13.96804
G1 X12.385 Y291.542 E13.9895
G1 X12.151 Y291.308 E14.00601
G1 X11.945 Y291.045 E14.02268
G1 X11.806 Y290.741 E14.03935
G1 X11.741 Y290.318 E14.0607
G1 X11.741 Y257.386 E15.70369
G1 X11.781 Y257.054 E15.72037
G1 X11.898 Y256.742 E15.737
G1 X12.151 Y256.396 E15.75838
G1 X12.385 Y256.162 E15.77489
G1 X12.648 Y255.956 E15.79156
G1 X12.952 Y255.817 E15.80823
G1 X13.377 Y255.752 E15.82968
G0 F3600 X13.376 Y256.152
G1 F1200 X53.443 Y256.205 E17.82864
G1 X53.723 Y256.245 E17.84275
G1 X53.98 Y256.362 E17.85684
G1 X54.113 Y256.464 E17.8652
G1 X54.409 Y256.732 E17.88512
G1 X54.59 Y256.949 E17.89922
G1 X54.712 Y257.248 E17.91533
G1 X54.781 Y257.547 E17.93064
G1 X54.805 Y257.828 E17.94471
G1 X54.714 Y258.193 E17.96347
G1 X52.803 Y262.307 E18.18979
G1 X52.796 Y262.509 E18.19987
G1 X52.744 Y262.796 E18.21442
G1 X51.826 Y265.498 E18.35679
G1 X51.819 Y265.746 E18.36917
G1 X51.797 Y265.924 E18.37812
G1 X51.073 Y269.334 E18.55204
G1 X51.096 Y269.573 E18.56401
G1 X51.097 Y269.755 E18.57309
G1 X50.881 Y272.249 E18.69799
G1 X50.844 Y274.33 E18.80182
G1 X50.969 Y276.767 E18.92357
G1 X51.348 Y279.626 E19.06745
G1 X51.726 Y281.451 E19.16043
G1 X52.348 Y283.73 E19.27829
G1 X53.1 Y285.856 E19.3908
G1 X53.816 Y287.559 E19.48296
G1 X54.682 Y289.348 E19.58213
G1 X54.775 Y289.665 E19.59861
G1 X54.799 Y289.866 E19.60871
G1 X54.793 Y290.149 E19.62283
G1 X54.749 Y290.318 E19.63154
G1 X54.636 Y290.638 E19.64847
G1 X54.505 Y290.888 E19.66255
G1 X54.33 Y291.076 E19.67537
G1 X54.1 Y291.266 E19.69025
G1 X53.859 Y291.413 E19.70433
G1 X53.464 Y291.495 E19.72446
G1 X13.376 Y291.552 E21.72446
G1 X13.097 Y291.513 E21.73852
G1 X12.84 Y291.397 E21.75258
G1 X12.668 Y291.259 E21.76359
G1 X12.434 Y291.025 E21.7801
G1 X12.265 Y290.799 E21.79417
G1 X12.165 Y290.535 E21.80826
G1 X12.141 Y290.318 E21.81915
G1 X12.141 Y257.386 E23.46213
G1 X12.181 Y257.107 E23.4762
G1 X12.297 Y256.85 E23.49026
G1 X12.434 Y256.679 E23.5012
G1 X12.668 Y256.445 E23.51771
G1 X12.894 Y256.276 E23.53178
G1 X13.158 Y256.176 E23.54587
G1 X13.376 Y256.152 E23.55681
G0 F3600 X13.376 Y256.552
G1 F1200 X53.443 Y256.605 E25.55576
G1 X53.657 Y256.645 E25.56662
G1 X53.845 Y256.76 E25.57762
G1 X54.141 Y257.028 E25.59754
G1 X54.273 Y257.202 E25.60844
G1 X54.323 Y257.338 E25.61567
G1 X54.392 Y257.637 E25.63097
G1 X54.401 Y257.855 E25.64186
G1 X54.351 Y258.025 E25.6507
G1 X52.407 Y262.21 E25.88092
G1 X52.397 Y262.495 E25.89515
G1 X52.365 Y262.667 E25.90387
G1 X51.428 Y265.426 E26.04924
G1 X51.419 Y265.734 E26.06461
G1 X51.406 Y265.841 E26.06999
G1 X50.669 Y269.311 E26.24697
G1 X50.698 Y269.611 E26.26201
G1 X50.699 Y269.721 E26.2675
G1 X50.481 Y272.237 E26.39349
G1 X50.443 Y274.344 E26.49863
G1 X50.569 Y276.789 E26.62077
G1 X50.955 Y279.705 E26.76752
G1 X51.336 Y281.54 E26.86102
G1 X51.964 Y283.844 E26.98016
G1 X52.729 Y286.008 E27.09467
G1 X53.448 Y287.718 E27.18722
G1 X54.322 Y289.522 E27.28723
G1 X54.378 Y289.713 E27.29716
G1 X54.402 Y289.914 E27.30726
G1 X54.372 Y290.185 E27.32086
G1 X54.259 Y290.505 E27.33779
G1 X54.075 Y290.768 E27.3538
G1 X53.845 Y290.958 E27.36869
G1 X53.654 Y291.064 E27.37959
G1 X53.464 Y291.095 E27.38919
G1 X13.376 Y291.152 E29.38919
G1 X13.161 Y291.113 E29.40009
G1 X12.951 Y290.976 E29.4126
G1 X12.717 Y290.742 E29.42911
G1 X12.593 Y290.563 E29.43997
G1 X12.541 Y290.318 E29.45247
G1 X12.541 Y257.386 E31.09545
G1 X12.581 Y257.171 E31.10636
G1 X12.717 Y256.962 E31.1188
G1 X12.951 Y256.728 E31.13531
G1 X13.13 Y256.604 E31.14618
G1 X13.376 Y256.552 E31.15872
G0 F3600 X13.375 Y256.952
G1 F1200 X53.442 Y257.005 E33.15768
G1 X53.576 Y257.057 E33.16485
G1 X53.872 Y257.325 E33.18477
G1 X53.933 Y257.428 E33.19074
G1 X54.002 Y257.727 E33.20605
G1 X53.988 Y257.856 E33.21252
G1 X52.01 Y262.115 E33.4468
G1 X51.997 Y262.481 E33.46507
G1 X51.986 Y262.538 E33.46797
G1 X51.03 Y265.353 E33.61629
G1 X51.019 Y265.722 E33.63471
G1 X51.015 Y265.758 E33.63651
G1 X50.265 Y269.289 E33.81661
G1 X50.3 Y269.65 E33.8347
G1 X50.3 Y269.686 E33.8365
G1 X50.081 Y272.207 E33.96274
G1 X50.043 Y274.34 E34.06918
G1 X50.172 Y276.838 E34.19397
G1 X50.558 Y279.755 E34.34077
G1 X50.95 Y281.645 E34.43707
G1 X51.581 Y283.96 E34.55677
G1 X52.357 Y286.154 E34.67288
G1 X53.082 Y287.88 E34.76628
G1 X53.962 Y289.697 E34.867
G1 X53.981 Y289.76 E34.87028
G1 X54.005 Y289.961 E34.88038
G1 X53.995 Y290.052 E34.88495
G1 X53.882 Y290.372 E34.90188
G1 X53.82 Y290.459 E34.90721
G1 X53.59 Y290.649 E34.92209
G1 X53.463 Y290.695 E34.92883
G1 X13.375 Y290.752 E36.92883
G1 X13.234 Y290.693 E36.93646
G1 X13 Y290.459 E36.95297
G1 X12.941 Y290.318 E36.96059
G1 X12.941 Y257.386 E38.60358
G1 X13 Y257.245 E38.6112
G1 X13.234 Y257.011 E38.62771
G1 X13.375 Y256.952 E38.63534
G0 F3600 X15.755 Y259.096
G1 F1200 X15.34 Y259.46 E38.66288
G1 X15.02 Y259.866 E38.68867
G1 X14.731 Y260.619 E38.72891
G1 X14.691 Y286.671 E40.02865
G1 X14.754 Y287.197 E40.05508
G1 X15.083 Y287.936 E40.09544
G1 X15.447 Y288.351 E40.12298
G1 X15.855 Y288.673 E40.14891
G1 X16.608 Y288.962 E40.18915
G1 X48.178 Y289.001 E41.76418
G1 X49.066 Y288.818 E41.80942
G1 X49.734 Y288.373 E41.84946
G1 X50.104 Y287.914 E41.87887
G1 X50.467 Y287.088 E41.92389
G1 X50.489 Y286.286 E41.96391
G1 X49.701 Y283.765 E42.09569
G1 X49.697 Y283.751 E42.09641
G1 X48.896 Y280.383 E42.26913
G1 X48.893 Y280.367 E42.26994
G1 X48.536 Y278.031 E42.38784
G1 X48.535 Y278.016 E42.38859
G1 X48.311 Y275.034 E42.53778
G1 X48.31 Y275.019 E42.53853
G1 X48.311 Y272.689 E42.65478
G1 X48.311 Y272.677 E42.65538
G1 X48.415 Y270.901 E42.74413
G1 X48.416 Y270.89 E42.74468
G1 X48.691 Y268.534 E42.86302
G1 X48.693 Y268.52 E42.86373
G1 X49.138 Y266.137 E42.98467
G1 X49.141 Y266.125 E42.98529
G1 X49.685 Y263.993 E43.09506
G1 X49.688 Y263.983 E43.09558
G1 X50.501 Y261.338 E43.23364
G1 X50.449 Y260.534 E43.27383
G1 X50.115 Y259.802 E43.31397
G1 X49.671 Y259.267 E43.34866
G1 X48.984 Y258.848 E43.38881
G1 X48.18 Y258.701 E43.42958
G1 X17.025 Y258.702 E44.98391
G1 X16.497 Y258.764 E45.01043
G1 X15.755 Y259.096 E45.05099
G0 F3600 X15.975 Y259.435
G1 F1200 X15.628 Y259.74 E45.07404
G1 X15.371 Y260.066 E45.09475
G1 X15.131 Y260.692 E45.1282
G1 X15.091 Y286.649 E46.4232
G1 X15.143 Y287.09 E46.44535
G1 X15.422 Y287.716 E46.47954
G1 X15.725 Y288.061 E46.50245
G1 X16.057 Y288.323 E46.52355
G1 X16.681 Y288.562 E46.55689
G1 X48.136 Y288.601 E48.12619
G1 X48.909 Y288.441 E48.16557
G1 X49.462 Y288.073 E48.19871
G1 X49.759 Y287.705 E48.2223
G1 X50.069 Y287 E48.26072
G1 X50.087 Y286.342 E48.29356
G1 X49.319 Y283.884 E48.42204
G1 X49.308 Y283.844 E48.42411
G1 X48.507 Y280.476 E48.59683
G1 X48.498 Y280.428 E48.59926
G1 X48.141 Y278.092 E48.71716
G1 X48.136 Y278.046 E48.71947
G1 X47.912 Y275.064 E48.86866
G1 X47.91 Y275.019 E48.87091
G1 X47.911 Y272.689 E48.98715
G1 X47.912 Y272.654 E48.9889
G1 X48.016 Y270.878 E49.07766
G1 X48.019 Y270.843 E49.07941
G1 X48.294 Y268.487 E49.19775
G1 X48.3 Y268.447 E49.19977
G1 X48.745 Y266.064 E49.32071
G1 X48.754 Y266.026 E49.32266
G1 X49.298 Y263.894 E49.43243
G1 X49.305 Y263.866 E49.43387
G1 X50.097 Y261.288 E49.56842
G1 X50.055 Y260.634 E49.60112
G1 X49.772 Y260.013 E49.63516
G1 X49.407 Y259.574 E49.66365
G1 X48.839 Y259.228 E49.69683
G1 X48.147 Y259.101 E49.73193
G1 X17.046 Y259.102 E51.28356
G1 X16.604 Y259.154 E51.30577
G1 X15.975 Y259.435 E51.34014
G0 F3600 X16.193 Y259.776
G1 F1200 X15.921 Y260.015 E51.3582
G1 X15.723 Y260.265 E51.37411
G1 X15.531 Y260.768 E51.40097
G1 X15.491 Y286.628 E52.69114
G1 X15.533 Y286.983 E52.70897
G1 X15.763 Y287.498 E52.73711
G1 X16 Y287.768 E52.75503
G1 X16.256 Y287.971 E52.77133
G1 X16.756 Y288.162 E52.79804
G1 X48.098 Y288.201 E54.3617
G1 X48.752 Y288.066 E54.39501
G1 X49.19 Y287.774 E54.42128
G1 X49.412 Y287.499 E54.43891
G1 X49.671 Y286.909 E54.47105
G1 X49.686 Y286.394 E54.49676
G1 X48.938 Y284.003 E54.62175
G1 X48.919 Y283.936 E54.62522
G1 X48.118 Y280.568 E54.79794
G1 X48.102 Y280.488 E54.80201
G1 X47.745 Y278.152 E54.91991
G1 X47.737 Y278.076 E54.92372
G1 X47.513 Y275.094 E55.07291
G1 X47.51 Y275.019 E55.07665
G1 X47.511 Y272.689 E55.1929
G1 X47.513 Y272.631 E55.19579
G1 X47.617 Y270.855 E55.28455
G1 X47.622 Y270.797 E55.28746
G1 X47.897 Y268.441 E55.40579
G1 X47.907 Y268.373 E55.40922
G1 X48.352 Y265.99 E55.53017
G1 X48.366 Y265.927 E55.53339
G1 X48.91 Y263.795 E55.64316
G1 X48.923 Y263.748 E55.64559
G1 X49.693 Y261.241 E55.77643
G1 X49.661 Y260.734 E55.80178
G1 X49.431 Y260.229 E55.82946
G1 X49.142 Y259.882 E55.85199
G1 X48.693 Y259.608 E55.87824
G1 X48.107 Y259.501 E55.90796
G1 X17.068 Y259.502 E57.4565
G1 X16.712 Y259.544 E57.47438
G1 X16.193 Y259.776 E57.50274
G0 F3600 X16.184 Y260.312
G1 F1200 X16.301 Y260.195 E57.511
G1 X16.527 Y260.026 E57.52508
G1 X16.791 Y259.926 E57.53916
G1 X17.008 Y259.902 E57.55005
G1 X48.201 Y259.901 E59.10628
G1 X48.48 Y259.941 E59.12034
G1 X48.737 Y260.057 E59.13441
G1 X49.019 Y260.325 E59.15382
G1 X49.138 Y260.494 E59.16413
G1 X49.266 Y260.746 E59.17823
G1 X49.319 Y261.023 E59.1923
G1 X49.271 Y261.379 E59.21022
G1 X48.542 Y263.627 E59.32813
G1 X47.83 Y266.521 E59.47681
G1 X47.509 Y268.327 E59.56833
G1 X47.223 Y270.767 E59.69089
G1 X47.098 Y273.24 E59.81443
G1 X47.138 Y275.696 E59.93697
G1 X47.51 Y279.385 E60.12195
G1 X48.214 Y282.862 E60.29894
G1 X49.275 Y286.34 E60.48035
G1 X49.319 Y286.619 E60.49445
G1 X49.283 Y286.899 E60.50853
G1 X49.134 Y287.211 E60.52578
G1 X49.014 Y287.38 E60.53612
G1 X48.82 Y287.585 E60.5502
G1 X48.577 Y287.727 E60.56424
G1 X48.199 Y287.801 E60.58346
G1 X17.008 Y287.802 E62.13958
G1 X16.729 Y287.762 E62.15365
G1 X16.472 Y287.646 E62.16771
G1 X16.301 Y287.509 E62.17864
G1 X16.184 Y287.392 E62.1869
G1 X16.015 Y287.166 E62.20098
G1 X15.915 Y286.902 E62.21506
G1 X15.891 Y286.685 E62.22596
G1 X15.891 Y261.019 E63.50644
G1 X15.931 Y260.74 E63.5205
G1 X16.047 Y260.483 E63.53457
G1 X16.184 Y260.312 E63.5455
G0 F3600 X16.584 Y260.478
G1 F1200 X16.763 Y260.354 E63.55636
G1 X17.008 Y260.302 E63.56886
G1 X48.201 Y260.301 E65.12508
G1 X48.416 Y260.341 E65.13599
G1 X48.602 Y260.454 E65.14685
G1 X48.692 Y260.556 E65.15364
G1 X48.811 Y260.725 E65.16395
G1 X48.902 Y260.923 E65.17482
G1 X48.916 Y261.141 E65.18572
G1 X48.891 Y261.255 E65.19154
G1 X48.157 Y263.518 E65.31023
G1 X47.438 Y266.446 E65.46065
G1 X47.115 Y268.262 E65.55267
G1 X46.823 Y270.745 E65.67741
G1 X46.697 Y273.226 E65.80134
G1 X46.738 Y275.711 E65.92534
G1 X47.114 Y279.444 E66.11252
G1 X47.825 Y282.957 E66.29134
G1 X48.893 Y286.457 E66.4739
G1 X48.918 Y286.674 E66.4848
G1 X48.808 Y286.979 E66.50097
G1 X48.688 Y287.148 E66.51132
G1 X48.532 Y287.3 E66.52218
G1 X48.331 Y287.386 E66.53309
G1 X48.199 Y287.401 E66.53972
G1 X17.008 Y287.402 E68.09584
G1 X16.793 Y287.362 E68.10675
G1 X16.584 Y287.226 E68.11919
G1 X16.467 Y287.109 E68.12745
G1 X16.343 Y286.93 E68.13831
G1 X16.291 Y286.685 E68.15081
G1 X16.291 Y261.019 E69.43129
G1 X16.331 Y260.804 E69.4422
G1 X16.467 Y260.595 E69.45464
G1 X16.584 Y260.478 E69.46289
G0 F3600 X16.867 Y260.761
G1 F1200 X17.008 Y260.702 E69.47052
G1 X48.201 Y260.701 E71.02675
G1 X48.32 Y260.74 E71.03299
G1 X48.365 Y260.786 E71.0362
G1 X48.484 Y260.955 E71.04652
G1 X48.51 Y261.132 E71.05544
G1 X47.771 Y263.409 E71.17487
G1 X47.047 Y266.356 E71.32627
G1 X46.72 Y268.195 E71.41946
G1 X46.424 Y270.713 E71.54595
G1 X46.297 Y273.231 E71.67173
G1 X46.339 Y275.742 E71.79702
G1 X46.718 Y279.503 E71.98561
G1 X47.438 Y283.061 E72.16672
G1 X48.51 Y286.574 E72.34996
G1 X48.482 Y286.748 E72.35875
G1 X48.362 Y286.917 E72.36909
G1 X48.262 Y286.991 E72.3753
G1 X48.199 Y287.001 E72.37848
G1 X17.008 Y287.002 E73.93461
G1 X16.867 Y286.943 E73.94223
G1 X16.75 Y286.826 E73.95049
G1 X16.691 Y286.685 E73.95811
G1 X16.691 Y261.019 E75.2386
G1 X16.75 Y260.878 E75.24622
G1 X16.867 Y260.761 E75.25448
G1 F1500 E68.75448
G0 F3600 X16.866 Y260.237
G0 X36.157 Y260.237
G0 X36.158 Y270.606
G1 F1500 E75.25448
G1 F1200 X36.275 Y270.489 E75.26273
